X:614
T:Bondessonvalsen
R:Vals
Z:Patrik Månsson, 5/10-08
O:Halland
M:3/4
L:1/8
K:G

Bd |: "G" g2 f2 e2 | d3 e dc | (B2 G2) G2 | G4 (Bd) | "D" (c2F2) F2 | F4 (Ac) | "G" B2 G2 G2 | G4 (Bd) |
g2 f2 e2 | d3 e dc | (B2 G2) G2 | G4 (Bd) | "D" (c2F2) F2 | F2 E2 F2 | "G" (A2 G2) G2 |[1 !fine! G4 Bd :|[2 G4 D2 |]
|: "G" !+![DG,]2 BB BB | B2 A2 B2 | "D" !+![AD]2 cc cc | c2 B2 c2 | !+![AD]2 ff ff | f2 e2 f2 |[1 "G" !+![DG,]2 gg gg | g2 d2 B2 :|[2 "G" (a2 [gB]2) [gB]2 | [gB]4 z2 |]




(:musicend:)

(:music:)
